X:1
T:Pipe on the Hob, The
R:jig
M:6/8
L:1/8
K:Dmix
d^cd A2G|F2D DED|EDE cBc|E2D DFA|
dcB cBA|BAG A2G|EDE cBc|E2D D3|
d^cd A2G|F2D DED|~E3 cGE|EDC DFA|
dcB cBA|BAG A2G|~E3 cGE|EDC D3|]
f2d d^cd|f2d d^cd|edB c2d|ede age|
f2d d^cd|f2d d^cd|ede age|ed^c d2e|
~f3 d^cd|fdd d^cd|edB c2d|ede age|
~f3 gfg|agf efg|fed eag|ed^c d2A|]
